X: 95
T: Qongren nan
L: 1/8
M: 2/4
K: Eb
E D C B,/ C/ [I:setbarnb 1]| 
E D C G, | 
B, C E F | 
B FE2 | 
z B D F | 
G> D C G, | 
B, B,/ C/ E D | 
C B,F,2- | 
F,2z2 |]

@@@ Tune index: 8969
